src/actions/16/view-institution.svg

<svg viewBox="0 0 16 16" xmlns="http://www.w3.org/2000/svg">
  <defs id="defs3051">
    <style type="text/css" id="current-color-scheme">
      .ColorScheme-Text {
        color:#363636;
      }
      </style>
  </defs>
<path
    d="m8 2.0039062-6 3.8984376v1.0976562h1v6h-1v1h12v-1h-1v-6h1v-1.0976562zm0 1.1933594 4.310547 2.8027344h-8.6210939zm-4 3.8027344h1v6h-1zm2 0h4v6h-1v-2h-2v2h-1zm5 0h1v6h-1z"
    style="fill:currentColor;fill-opacity:1;stroke:none"
    class="ColorScheme-Text"
    />
</svg>

<svg xmlns="http://www.w3.org/2000/svg" viewBox="0 0 16 16">
    <path d="M8 2.004 2 5.902V7h1v6H2v1h12v-1h-1V7h1V5.902zm0 1.193L12.31 6H3.69zM4 7h1v6H4zm2 0h4v6H9v-2H7v2H6zm5 0h1v6h-1z" style="fill:currentColor;fill-opacity:1;stroke:none;color:#050505;opacity:.7"/>
</svg>
